context/brand-context/default/img/icons/filter.svg

<svg id="i-filter" viewBox="0 0 16 16" xmlns="http://www.w3.org/2000/svg"><path d="m14.9738641 0c.5667192 0 1.0261359.4477136 1.0261359 1 0 .24221858-.0902161.47620768-.2538899.65849851l-5.6938314 6.34147206v5.49997973c0 .3147562-.1520673.6111434-.4104543.7999971l-2.05227171 1.4999945c-.45337535.3313696-1.09655869.2418269-1.4365902-.1999993-.13321514-.1730955-.20522717-.3836284-.20522717-.5999978v-6.99997423l-5.69383133-6.34147206c-.3731872-.41563511-.32996891-1.0473954.09653074-1.41107611.18705584-.15950448.42716133-.2474224.67571519-.2474224zm-5.9218641 8.5h-2.105v6.491l.01238459.0070843.02053271.0015705.01955278-.0070558 2.0532976-1.4990996zm-8.02585008-7.5-.01564945.00240169 5.83249953 6.49759831h2.313l5.836-6.499z" fill="currentColor"/></svg>

<svg id="i-filter" viewBox="0 0 16 16" xmlns="http://www.w3.org/2000/svg"><path d="M14.974 0C15.54 0 16 .448 16 1c0 .242-.09.476-.254.658L10.052 8v5.5a.992.992 0 0 1-.41.8L7.59 15.8a1.044 1.044 0 0 1-1.437-.2.983.983 0 0 1-.205-.6V8L.254 1.658A.982.982 0 0 1 .35.248C.537.087.778 0 1.026 0zM9.052 8.5H6.947v6.491l.012.007.02.002.02-.007 2.054-1.5zM1.026 1l-.015.002L6.843 7.5h2.313l5.836-6.499z" fill="currentColor"/></svg>
